X:139
T:Hot Punch
T:Orange and Blue (the)
R:jig 32
O:England
M:6/8
L:1/8
Q:1/8=180
K:Gmaj
d2c|B2G GFG|E2G D2G|B2G BdB|G3A2B|
c2A AGA|F2A A2G|F2D FAF|D3d2c|
B2G GFG|E2G D2G|B2G BdB|G3-G2d|
dBd cAc|BGB A2A|D2D DEF|G3||
d2c|B2d dcd|B2d dcd|B2G BdB|G3A2B|
c2A AGA|F2A A2G|F2D FAF|D3d2c|
B2d dcd|B2d d2c|B2G BdB|G3-G2d|
dBd cAc|BGB A2A|D2D DEF|G3|]
W:Published widely, often as The Orange and Blue.
W:In Vickers aa The Frolic.

